X:53
M:6/8
L:1/8
K:G
|: ded dgd | dbd dcB | cdc cec | cac cBA | B2B BAG | FGA D2 d/c/ | BAG DGF | G3 G3 :|

